rospo-newyear-dark/symbolic/status/checkbox-mixed-symbolic.svg

<svg height="16" width="16" xmlns="http://www.w3.org/2000/svg"><path d="m4 2c-1.11 0-2 .89-2 2v8c0 1.11.89 2 2 2h8c1.11 0 2-.89 2-2v-8c0-1.11-.89-2-2-2zm0 1h8c .55 0 1 .45 1 1v8c0 .55-.45 1-1 1h-8c-.55 0-1-.45-1-1v-8c0-.55.45-1 1-1z" fill="#d3dae3"/><path d="m6 7h4c1.108 0 2 .446 2 1s-.892 1-2 1h-4c-1.108 0-2-.446-2-1s .892-1 2-1z" fill="#d3dae3"/></svg>

<svg xmlns="http://www.w3.org/2000/svg" width="16" height="16" version="1.1">
 <path style="fill:#d3dae3" d="M 4,2 C 2.89,2 2,2.89 2,4 V 12 C 2,13.11 2.89,14 4,14 H 12 C 13.11,14 14,13.11 14,12 V 4 C 14,2.89 13.11,2 12,2 Z M 4,3 H 12 C 12.55,3 13,3.45 13,4 V 12 C 13,12.55 12.55,13 12,13 H 4 C 3.45,13 3,12.55 3,12 V 4 C 3,3.45 3.45,3 4,3 Z"/>
 <path style="fill:#d3dae3" d="M 6,7 H 10 C 11.108,7 12,7.446 12,8 12,8.554 11.108,9 10,9 H 6 C 4.892,9 4,8.554 4,8 4,7.446 4.892,7 6,7 Z"/>
</svg>
